X:1
T:Hey Ca' Thro'
M:6/8
L:1/8
K:F
 f3/2- g/2 f c3/2- d/2 c| A2 A f2 f| c3/2- d/2 c A3| B2 B A3/2 B/2 A|\
 G2 A F2 A| c3/2- d/2 c A3| B2 f A2 f| G2 A F2 A| c3/2 d/2 c A3| B2 f A2 f|\
 G2 A F2 A| c3/2 d/2 c A3|
